X:1
T:Miserere mei Domine
T:Tomás Luis de Victoria (1548-1611)
T:Psalm 6 v.2 & Jeremiah 17 v.14
T:Miserere mei Domine
T:Copyright © 
T:Copyright © 
C:Tomás Luis de Victoria
C:(1548-1611)
Z:Psalm 6 v.2 & Jeremiah 17 v.14
Z:Copyright ©
%%score [ 1 2 3 4 ]
L:1/8
M:4/2
K:D
V:1 treble nm="SOPRANO" snm="S."
V:2 treble nm="ALTO" snm="A."
V:3 treble-8 transpose=-12 nm="TENOR" snm="T."
V:4 bass nm="BASS" snm="B."
V:1
"^Miserere mei Domine, quoniam infirmus sum.Sana me Domine et sanibor.Have mercy upon me, O Lord, because I am weak.Heal me Lord, and I shall be healed." B12 B4 | %1
w: Mi- se-|
 B4 B4 (d6 c2 | B2 A2 B4) A8- | A8 z8 | z4 d8 c4 | B4 A4 G8- | G8 E8 | D8 z8 | z8 z4 d4- | %9
w: re- re- me- *|* * * i|_|quo- ni-|am- in- fir-|* mus-|sum,|quo-|
 d4 c4 B4 A4 | G8 E8 | D8 d8- | d8 c8 | A4 (B8 ^A4 | B4) G4 F8 | z16 | z4 B8 ^A4 | B8 (d4 c4- | %18
w: * ni- am- in-|fir- mus-|sum,- sa-|* na-|me- Do- *|* mi- ne,-||sa- na-|me- Do- *|
 c2 B2 B8) ^A4 | B8 z4 B4 | c8 (d8- | d4 c4 B8) | ^A8 d8- | d8 c8 | (B12 A4 | G16) | %26
w: * * * mi-|ne,- et-|sa- na-||bor et|_ sa-|na- *||
 !fermata!F16 |] %27
w: bor.-|
V:2
 z8 D8- | D4 D4 D4 D4 | D8 D4 F4- | F4 E4 D4 C4 | B,8 G,8 | D8 z8 | z8 z4 A4- | A4 G4 F4 E4 | %8
w: Mi-|* se- re- re-|me- i- quo-|* ni- am- in-|fir- mus-|sum,-|quo-|* ni- am- in-|
 D4 C4 D8 | z4 E4 F6 D2 | E4 D8 C4 | (D2 E2 F2 G2 F8) | z16 | z16 | z16 | F12 E4 | F8 (G4 F4- | %17
w: fir- mus- sum,-|in- fir- *|* * mus-|sum, _ _ _ _||||sa- na|me Do- *|
 F4) E4 F8- | F8 z4 E4 | F4 (G4- G2 F2 F2 ED | E4) A,4 z4 G,4 | (B,4 C4) (D4 B,4) | C4 F8 D4 | %23
w: * mi- ne,|_ et-|sa- na- * * * * *|* bor,- et-|sa- * na- *|bor,- et- sa-|
 (F6 G2 A8) | D4 G8 F4 | (E6 D2 C4 B,4- | B,4 ^A,2 ^G,2) !fermata!A,8 |] %27
w: na- * *|bor,- et- sa-|na- * * *|* * * bor.-|
V:3
 z8 f8- | f4 f4 f4 f4 | g8 f8 | z16 | z8 z4 g4- | g4 f4 e4 d4 | (e4 d8 c4 | d4) B4 A8 | z4 a8 g4 | %9
w: Mi-|* se- re- re|me- i-||quo-|* ni- am- in-|fir- * *|* mus- sum,|quo- ni-|
 f4 e4 (d8 | G8) A8 | B8 z8 | f12 e4 | f4 (g4- g2 f2 f4- | f4) e4 f4 d4- | d4 c4 d4 (e4 | %16
w: am- in- fir-|* mus-|sum,-|sa- na-|me- Do- * * *|* mi- ne,- sa-|* na- me- Do-|
 c4 d8) c4 | B4 B8 ^A4 | B8 d4 c4 | B16 | z4 e4 f4 (g4- | g2 f2 f8 e4) | f8 z4 f4- | f4 d4 (e4 f4 | %24
w: * * mi-|ne,- sa- na-|me- Do- mi-|ne,|et- sa- na-||bor,- et|_ sa- na- *|
 g8) d4 d4 | B8 e8 | !fermata!c16 |] %27
w: * bor,- et-|sa- na-|bor.-|
V:4
 z8 B,8- | B,4 B,4 B,4 B,4 | G,8 D,4 D4- | D4 C4 B,4 A,4 | G,8 E,8 | D,4 D,4 G,8- | G,8 A,8 | %7
w: Mi-|* se- re- re|me- i- quo-|* ni- am- in-|fir- mus-|sum,- in- fir-|* mus-|
 D,4 D8 C4 | B,4 A,4 B,8 | A,8 D,8 | z16 | z8 B,8- | B,8 A,8- | A,4 G,4 (E,4 F,4 | %14
w: sum,- quo- ni-|am- in- fir-|mus- sum,-||sa-|* na-|* me- Do- *|
 G,4) E,4 B,4 B,4- | B,4 A,4 B,4 (=C4 | A,4 B,4- B,2 A,2 F,4 | G,4) G,4 F,8 | z16 | D16 | %20
w: * mi- ne,- sa-|* na- me- Do-||* mi- ne,-||et|
 C8 (B,8- | B,4 A,4 G,8) | F,8 B,8- | B,8 A,8 | (G,12 D,4 | E,16) | !fermata!F,16 |] %27
w: sa- na-||bor,- et|_ sa-|na- *||bor.-|

